assets/icons/icon_share.svg

<svg width="48" height="48" viewBox="0 0 48 48" fill="none" xmlns="http://www.w3.org/2000/svg">
<g clip-path="url(#clip0_2188_3250)">
<path d="M35 16H31.5C30.67 16 30 16.67 30 17.5C30 18.33 30.67 19 31.5 19H35C37.76 19 40 21.24 40 24V36C40 38.76 37.76 41 35 41H13C10.24 41 8 38.76 8 36V24C8 21.24 10.24 19 13 19H16.5C17.33 19 18 18.33 18 17.5C18 16.67 17.33 16 16.5 16H13C8.58 16 5 19.58 5 24V36C5 40.42 8.58 44 13 44H35C39.42 44 43 40.42 43 36V24C43 19.58 39.42 16 35 16Z" fill="black"/>
<path d="M18.0197 13.2399L22.4997 9.07994V26.9999C22.4997 27.8299 23.1697 28.4999 23.9997 28.4999C24.8297 28.4999 25.4997 27.8299 25.4997 26.9999V9.07994L29.9797 13.2399C30.2697 13.5099 30.6397 13.6399 30.9997 13.6399C31.3997 13.6399 31.7997 13.4799 32.0997 13.1599C32.6597 12.5499 32.6297 11.5999 32.0197 11.0399L25.6997 5.16994C24.7497 4.27994 23.2497 4.27994 22.2997 5.16994L15.9797 11.0399C15.3697 11.5999 15.3397 12.5499 15.8997 13.1599C16.4597 13.7699 17.4097 13.7999 18.0197 13.2399Z" fill="black"/>
</g>
<defs>
<clipPath id="clip0_2188_3250">
<rect width="48" height="48" fill="white"/>
</clipPath>
</defs>
</svg>

<?xml version="1.0" encoding="UTF-8"?>
<svg xmlns="http://www.w3.org/2000/svg" viewBox="0 0 48 48">
  <defs>
    <style>
      .cls-1 {
        fill: none;
        opacity: .2;
      }
    </style>
  </defs>
  <g id="guid">
    <g>
      <rect class="cls-1" width="48" height="48"/>
      <rect class="cls-1" x="4" y="4" width="40" height="40"/>
    </g>
  </g>
  <g id="Layer_2" data-name="Layer 2">
    <g>
      <path d="M35,16h-3.5c-.83,0-1.5.67-1.5,1.5s.67,1.5,1.5,1.5h3.5c2.76,0,5,2.24,5,5v12c0,2.76-2.24,5-5,5H13c-2.76,0-5-2.24-5-5v-12c0-2.76,2.24-5,5-5h3.5c.83,0,1.5-.67,1.5-1.5s-.67-1.5-1.5-1.5h-3.5c-4.42,0-8,3.58-8,8v12c0,4.42,3.58,8,8,8h22c4.42,0,8-3.58,8-8v-12c0-4.42-3.58-8-8-8Z"/>
      <path d="M18.02,13.24l4.48-4.16v17.92c0,.83.67,1.5,1.5,1.5s1.5-.67,1.5-1.5V9.08l4.48,4.16c.29.27.66.4,1.02.4.4,0,.8-.16,1.1-.48.56-.61.53-1.56-.08-2.12l-6.32-5.87c-.95-.89-2.45-.89-3.4,0l-6.32,5.87c-.61.56-.64,1.51-.08,2.12.56.61,1.51.64,2.12.08Z"/>
    </g>
  </g>
</svg>
